not-on-facebook.svg

<?xml version="1.0" encoding="UTF-8" standalone="no"?>
<!-- Generated by IcoMoon.io -->

<svg
   xmlns:dc="http://purl.org/dc/elements/1.1/"
   xmlns:cc="http://creativecommons.org/ns#"
   xmlns:rdf="http://www.w3.org/1999/02/22-rdf-syntax-ns#"
   xmlns:svg="http://www.w3.org/2000/svg"
   xmlns="http://www.w3.org/2000/svg"
   xmlns:sodipodi="http://sodipodi.sourceforge.net/DTD/sodipodi-0.dtd"
   xmlns:inkscape="http://www.inkscape.org/namespaces/inkscape"
   version="1.1"
   width="702.46399"
   height="959.48798"
   viewBox="0 0 702.46399 959.48798"
   id="svg3130"
   inkscape:version="0.48.4 r9939"
   sodipodi:docname="no-facebook2.svg">
  <metadata
     id="metadata3138">
    <rdf:RDF>
      <cc:Work
         rdf:about="">
        <dc:format>image/svg+xml</dc:format>
        <dc:type
           rdf:resource="http://purl.org/dc/dcmitype/StillImage" />
        <dc:title></dc:title>
      </cc:Work>
    </rdf:RDF>
  </metadata>
  <defs
     id="defs3136" />
  <sodipodi:namedview
     pagecolor="#ffffff"
     bordercolor="#666666"
     borderopacity="1"
     objecttolerance="10"
     gridtolerance="10"
     guidetolerance="10"
     inkscape:pageopacity="0"
     inkscape:pageshadow="2"
     inkscape:window-width="1676"
     inkscape:window-height="1011"
     id="namedview3134"
     showgrid="false"
     inkscape:zoom="0.53588673"
     inkscape:cx="336.31356"
     inkscape:cy="477.13513"
     inkscape:window-x="0"
     inkscape:window-y="18"
     inkscape:window-maximized="0"
     inkscape:current-layer="svg3130"
     fit-margin-top="0"
     fit-margin-left="0"
     fit-margin-right="0"
     fit-margin-bottom="0"
     showguides="true"
     inkscape:snap-to-guides="true"
     inkscape:snap-grids="true"
     inkscape:guide-bbox="true"
     inkscape:object-paths="false"
     inkscape:snap-nodes="true"
     inkscape:snap-bbox="true"
     inkscape:bbox-paths="true"
     inkscape:bbox-nodes="true"
     inkscape:snap-bbox-edge-midpoints="true"
     inkscape:snap-bbox-midpoints="true"
     inkscape:object-nodes="true"
     inkscape:snap-smooth-nodes="true">
    <sodipodi:guide
       orientation="-0.70420288,0.7099988"
       position="226.816,480.25598"
       id="guide3279" />
    <sodipodi:guide
       orientation="-0.70998701,0.70421477"
       position="352.256,353.79198"
       id="guide3281" />
    <sodipodi:guide
       orientation="0.70710679,0.70710678"
       position="26.624002,680.44798"
       id="guide3283" />
    <sodipodi:guide
       orientation="-0.70710677,-0.70710679"
       position="352.256,604.67198"
       id="guide3285" />
    <sodipodi:guide
       orientation="-0.70710678,0.70710679"
       position="26.624002,680.44798"
       id="guide3287" />
    <sodipodi:guide
       orientation="0.70998702,0.70421476"
       position="26.624002,280.06398"
       id="guide3289" />
    <sodipodi:guide
       orientation="0.70710679,0.70710677"
       position="551.936,805.37598"
       id="guide3291" />
    <sodipodi:guide
       orientation="-0.70998702,0.70421476"
       position="551.936,154.11198"
       id="guide3293" />
    <sodipodi:guide
       orientation="0.7076629,0.70655022"
       position="1.0659852e-06,742.91198"
       id="guide3299" />
    <sodipodi:guide
       orientation="0.70769628,0.70651679"
       position="89.088002,830.97598"
       id="guide3301" />
    <sodipodi:guide
       orientation="-0.70710678,0.70710678"
       position="1.0659852e-06,216.57598"
       id="guide3303" />
    <sodipodi:guide
       orientation="-0.70769628,0.70651679"
       position="89.088002,128.51198"
       id="guide3305" />
  </sodipodi:namedview>
  <path
     d="M 441.84375 0 C 365.38508 0 310.45067 18.099917 277 54.28125 C 243.54933 90.462583 226.8125 144.03392 226.8125 215.03125 L 226.8125 266.46875 L 133.09375 172.59375 C 115.34442 155.52708 89.09375 128.5 89.09375 128.5 L 0 216.5625 C 4.7369516e-15 216.5625 26.750666 244.08959 44.5 261.15625 L 127.5 344.28125 L 127.5 479.21875 L 226.8125 479.21875 L 226.8125 516.09375 L 44.96875 697.9375 L 0 742.90625 L 89.09375 830.96875 C 89.09375 830.96875 116.08958 803.91042 133.15625 786.84375 L 226.8125 693.03125 L 226.8125 959.5 L 424.4375 959.5 L 424.4375 641.6875 L 569.84375 787.3125 C 586.89699 804.39259 614.40625 830.96875 614.40625 830.96875 L 702.46875 742.90625 C 702.46875 742.90625 675.09792 716.15558 658.03125 698.40625 L 439.75 479.75 L 440.28125 479.21875 L 557.5625 479.21875 L 571.4375 347.84375 L 658.46875 260.65625 C 675.53541 243.58958 702.46875 216.5625 702.46875 216.5625 L 614.40625 128.5 L 570.375 172.53125 L 428.53125 314.375 L 425.46875 314.375 L 425.46875 231.4375 C 425.46875 219.1495 426.16592 209.57667 427.53125 202.75 C 428.89658 195.92333 431.62275 189.10792 435.71875 182.28125 C 439.81475 175.45458 446.28158 171.01675 455.15625 168.96875 C 464.03092 166.92075 475.98133 165.55767 491 164.875 L 573.9375 164.875 L 573.9375 0 L 441.84375 0 z "
     transform="translate(-1.0659852e-6,0)"
     id="path3132" />
</svg>

<svg xmlns="http://www.w3.org/2000/svg" width="702.464" height="959.488" viewBox="0 0 702.46399 959.48798"><path d="M441.844 0c-76.459 0-131.393 18.1-164.844 54.281-33.451 36.181-50.188 89.753-50.188 160.75v51.438l-93.719-93.875c-17.749-17.067-44-44.094-44-44.094l-89.094 88.063s26.751 27.527 44.5 44.594l83 83.125v134.938h99.313v36.875l-181.844 181.844-44.969 44.969 89.094 88.063s26.996-27.058 44.063-44.125l93.656-93.813v266.469h197.625v-317.813l145.406 145.625c17.053 17.08 44.563 43.656 44.563 43.656l88.063-88.063s-27.371-26.751-44.438-44.5l-218.281-218.656.531-.531h117.281l13.875-131.375 87.031-87.188c17.067-17.067 44-44.094 44-44.094l-88.063-88.063-44.031 44.031-141.844 141.844h-3.063v-82.938c0-12.288.697-21.861 2.063-28.688 1.365-6.827 4.091-13.642 8.188-20.469 4.096-6.827 10.563-11.264 19.438-13.313 8.875-2.048 20.825-3.411 35.844-4.094h82.938v-164.875h-132.094z"/></svg>
